X: 140045
Q: "Irish Jig."
M: 6/8
L: 1/8
K: G
uG |\
gbg afd | cde dBG | GAB cAd | BGG G2 :|
|: ud |\
gbg afd | cde dBG | GAB cAd | BGG G2 :|


